X: 179
T: No_39_Cow_Creek_Hunting_Dance_Song_(f).krn
N: Derived from No_39_Cow_Creek_Hunting_Dance_Song_(f).krn
%%abc-version 2.0
%%abcx-abcm2ps-target-version 5.9.1 (29 Sep 2008)
%%abc-creator hum2abc beta
%%abcx-conversion-date 2019/03/15 08:38:45
%%humdrum-veritas 4171361822
%%humdrum-veritas-data 3009380878
%%linebreak <none>
%%barnumbers 0
L: 1/16
M: 3/4
K: E clef=bass
[K:clef=bass][M:3/4]z8(3B,2B,2B,2 | 
B,6A,2 A,F, z B, ||  
[M:2/4]B,A,2F,F,4 ||  
[M:3/4]E,E,3- E,3E,E,4 | 
B,3A, F,2B,2 B,A,3 | 
E,E,E,2- E,3B,F,4 ||  
[M:2/4](E,8 ||  
[M:3/4]B,,4)B,,4B,,2 z2 ||  
[M:2/4]E,8 | 
E,4(3B,2B,2B,2 ||  
[M:3/4]B,7A, A,F, z B, ||  
[M:2/4]B,A,2F,F,4 ||  
[M:3/4]E,E,E,2- E,3B,F,4 ||  
[M:2/4]E,8 ||  
[M:3/4]B,,4B,,4B,,2 z2 | 
E,8E,4 | 
[M:2/4](B,8 | 
B,2)E, zB,4



